assets/svg/icon_block_commenton.svg

<svg width="24" height="24" viewBox="0 0 24 24" fill="none" xmlns="http://www.w3.org/2000/svg">
<path fill-rule="evenodd" clip-rule="evenodd" d="M10.4926 20.1846C10.8743 20.7058 11.4245 21.0039 12 21.0039V21.0019C12.5735 21.0019 13.1238 20.7038 13.5074 20.1826L14.761 18.4807C14.8017 18.4254 14.8676 18.3919 14.9296 18.3919H15.3481C19.045 18.3919 21 16.3998 21 12.6327V8.76304C21 4.99601 19.045 3.00391 15.3481 3.00391H8.65188C4.95501 3.00391 3 4.99601 3 8.76501V12.6347C3 17.4304 5.16232 18.3938 8.65188 18.3938H9.06652C9.11302 18.3998 9.20796 18.4471 9.23703 18.4787L10.4926 20.1846ZM7.81526 9.40636H16.1855C16.5324 9.40636 16.8153 9.11811 16.8153 8.76471C16.8153 8.4113 16.5324 8.12305 16.1855 8.12305H7.81526C7.46843 8.12305 7.18555 8.4113 7.18555 8.76471C7.18555 9.11811 7.46843 9.40636 7.81526 9.40636ZM7.81526 13.2765H12.8374C13.1843 13.2765 13.4671 12.9883 13.4671 12.6349C13.4671 12.2815 13.1843 11.9932 12.8374 11.9932H7.81526C7.46843 11.9932 7.18555 12.2815 7.18555 12.6349C7.18555 12.9883 7.46843 13.2765 7.81526 13.2765Z" fill="#0166FF"/>
</svg>

<svg xmlns="http://www.w3.org/2000/svg" width="24" height="24" fill="none"><path fill="#0166FF" fill-rule="evenodd" d="M10.493 20.185c.381.52.931.819 1.507.819v-.002c.573 0 1.124-.298 1.507-.82l1.254-1.701a.22.22 0 0 1 .169-.09h.418c3.697 0 5.652-1.991 5.652-5.758v-3.87c0-3.767-1.955-5.76-5.652-5.76H8.652C4.955 3.004 3 4.997 3 8.766v3.87c0 4.795 2.162 5.759 5.652 5.759h.415a.4.4 0 0 1 .17.085zM7.815 9.406h8.37c.347 0 .63-.288.63-.641a.637.637 0 0 0-.63-.642h-8.37a.637.637 0 0 0-.63.642c0 .353.283.641.63.641m0 3.87h5.022c.347 0 .63-.288.63-.641a.637.637 0 0 0-.63-.642H7.815a.637.637 0 0 0-.63.642c0 .353.283.642.63.642" clip-rule="evenodd"/></svg>
